X:21
T: Graf und Nonne (Die Nonne)
N: Q0155T
O: Mitteleuropa, Deutschland (BRD) , Hessen, Kassel, Vollmarshausen
R: Ballade, Standesunterschied, vergebliche Werbung, Liebe
M: 3/4
L: 1/8
K: C
ED | C3DED | CGG2
ED | C3DEE | D4
CE | G2ECAG | GFD2
Gc | G2E2DD | C4

@@@ Tune index: 1731
